components/Common/Svg/svgs/migration.svg

<svg width="60" height="60" viewBox="0 0 60 60" fill="none" xmlns="http://www.w3.org/2000/svg">
<path d="M16 37.2697C16 36.7174 15.5523 36.2697 15 36.2697C14.4477 36.2697 14 36.7174 14 37.2697H16ZM14 37.2697C14 37.822 14.4477 38.2697 15 38.2697C15.5523 38.2697 16 37.822 16 37.2697H14ZM45.1667 23.5197C45.1667 22.9674 44.719 22.5197 44.1667 22.5197C43.6144 22.5197 43.1667 22.9674 43.1667 23.5197H45.1667ZM43.1667 23.5197C43.1667 24.072 43.6144 24.5197 44.1667 24.5197C44.719 24.5197 45.1667 24.072 45.1667 23.5197H43.1667ZM29.0208 17.6665C29.5731 17.6665 30.0208 17.2188 30.0208 16.6665C30.0208 16.1142 29.5731 15.6665 29.0208 15.6665V17.6665ZM34.5493 15.6665C33.997 15.6665 33.5493 16.1142 33.5493 16.6665C33.5493 17.2188 33.997 17.6665 34.5493 17.6665V15.6665ZM39.5538 18.1103C40.0639 18.3218 40.649 18.0797 40.8605 17.5696C41.0721 17.0594 40.83 16.4744 40.3199 16.2628L39.5538 18.1103ZM44.5704 20.5133C44.3588 20.0032 43.7738 19.7611 43.2636 19.9726C42.7534 20.1842 42.5114 20.7693 42.7229 21.2794L44.5704 20.5133ZM42.7229 25.7599C42.5114 26.2701 42.7534 26.8552 43.2636 27.0667C43.7737 27.2783 44.3588 27.0362 44.5704 26.526L42.7229 25.7599ZM40.3199 30.7766C40.83 30.565 41.0721 29.9799 40.8605 29.4698C40.649 28.9596 40.0639 28.7175 39.5537 28.9291L40.3199 30.7766ZM33.4593 29.3729C32.907 29.3729 32.4593 29.8206 32.4593 30.3729C32.4593 30.9251 32.907 31.3729 33.4593 31.3729V29.3729ZM25.751 31.3729C26.3033 31.3729 26.751 30.9251 26.751 30.3729C26.751 29.8206 26.3033 29.3729 25.751 29.3729V31.3729ZM18.8737 29.9725C18.3636 30.184 18.1215 30.7691 18.3331 31.2792C18.5446 31.7894 19.1297 32.0315 19.6399 31.8199L18.8737 29.9725ZM16.4471 35.0127C16.6586 34.5026 16.4165 33.9175 15.9064 33.7059C15.3962 33.4944 14.8112 33.7364 14.5996 34.2466L16.4471 35.0127ZM14.5996 40.2928C14.8112 40.8029 15.3962 41.045 15.9064 40.8334C16.4165 40.6219 16.6586 40.0368 16.4471 39.5266L14.5996 40.2928ZM19.6399 42.7194C19.1297 42.5079 18.5446 42.75 18.3331 43.2601C18.1215 43.7703 18.3636 44.3553 18.8738 44.5669L19.6399 42.7194ZM24.9619 45.1665C25.5142 45.1665 25.9619 44.7188 25.9619 44.1665C25.9619 43.6142 25.5142 43.1665 24.9619 43.1665V45.1665ZM31.0921 43.1665C30.5398 43.1665 30.0921 43.6142 30.0921 44.1665C30.0921 44.7188 30.5398 45.1665 31.0921 45.1665V43.1665ZM26.2566 17.6665H29.0208V15.6665H26.2566V17.6665ZM34.5493 17.6665H37.3135V15.6665H34.5493V17.6665ZM37.3135 17.6665C38.109 17.6665 38.865 17.8246 39.5538 18.1103L40.3199 16.2628C39.3925 15.8782 38.3765 15.6665 37.3135 15.6665V17.6665ZM42.7229 21.2794C43.0085 21.9682 43.1667 22.7242 43.1667 23.5197H45.1667C45.1667 22.4567 44.9549 21.4406 44.5704 20.5133L42.7229 21.2794ZM43.1667 23.5197C43.1667 24.3152 43.0085 25.0712 42.7229 25.7599L44.5704 26.526C44.9549 25.5987 45.1667 24.5827 45.1667 23.5197H43.1667ZM39.5537 28.9291C38.865 29.2147 38.109 29.3729 37.3135 29.3729V31.3729C38.3765 31.3729 39.3925 31.1611 40.3199 30.7766L39.5537 28.9291ZM37.3135 29.3729H33.4593V31.3729H37.3135V29.3729ZM25.751 29.3729H21.8968V31.3729H25.751V29.3729ZM21.8968 29.3729C20.8279 29.3729 19.8062 29.5858 18.8737 29.9725L19.6399 31.8199C20.3337 31.5322 21.0954 31.3729 21.8968 31.3729V29.3729ZM14.5996 34.2466C14.2129 35.1791 14 36.2008 14 37.2697H16C16 36.4683 16.1593 35.7066 16.4471 35.0127L14.5996 34.2466ZM14 37.2697C14 38.3386 14.2129 39.3603 14.5996 40.2928L16.4471 39.5266C16.1593 38.8328 16 38.0711 16 37.2697H14ZM18.8738 44.5669C19.8062 44.9536 20.8279 45.1665 21.8968 45.1665V43.1665C21.0954 43.1665 20.3338 43.0072 19.6399 42.7194L18.8738 44.5669ZM21.8968 45.1665H24.9619V43.1665H21.8968V45.1665ZM31.0921 45.1665H34.1572V43.1665H31.0921V45.1665Z" fill="#161616"/>
<path d="M16.4308 25.0003C21.1647 25.0003 25.0022 21.1627 25.0022 16.4289C25.0022 11.695 21.1647 7.85742 16.4308 7.85742C11.6969 7.85742 7.85938 11.695 7.85938 16.4289C7.85938 21.1627 11.6969 25.0003 16.4308 25.0003Z" fill="#FFF281" stroke="#161616" stroke-width="2" stroke-miterlimit="10"/>
<path d="M16.4308 19.2854C18.4032 19.2854 20.0022 17.6865 20.0022 15.714C20.0022 13.7416 18.4032 12.1426 16.4308 12.1426C14.4584 12.1426 12.8594 13.7416 12.8594 15.714C12.8594 17.6865 14.4584 19.2854 16.4308 19.2854Z" fill="#FFF281" stroke="#161616" stroke-width="2" stroke-miterlimit="10"/>
<path d="M10.6953 22.8017C11.2334 21.7438 12.0536 20.8555 13.0653 20.235C14.077 19.6146 15.2407 19.2861 16.4275 19.2861C17.6143 19.2861 18.778 19.6145 19.7897 20.235C20.8014 20.8555 21.6217 21.7438 22.1598 22.8017" stroke="#161616" stroke-width="2" stroke-linecap="round" stroke-linejoin="round"/>
<path d="M43.9308 52.5003C48.6647 52.5003 52.5022 48.6627 52.5022 43.9289C52.5022 39.195 48.6647 35.3574 43.9308 35.3574C39.1969 35.3574 35.3594 39.195 35.3594 43.9289C35.3594 48.6627 39.1969 52.5003 43.9308 52.5003Z" fill="#FFF281" stroke="#161616" stroke-width="2" stroke-linecap="round" stroke-linejoin="round"/>
<path d="M47.8571 41.7861L42.619 46.7861L40 44.2861" stroke="#161616" stroke-width="2" stroke-linecap="round" stroke-linejoin="round"/>
</svg>

<svg width="60" height="60" viewBox="0 0 60 60" fill="none" xmlns="http://www.w3.org/2000/svg"><path d="M16 37.27a1 1 0 1 0-2 0h2Zm-2 0a1 1 0 1 0 2 0h-2Zm31.167-13.75a1 1 0 1 0-2 0h2Zm-2 0a1 1 0 1 0 2 0h-2ZM29.02 17.666a1 1 0 1 0 0-2v2Zm5.528-2a1 1 0 1 0 0 2v-2Zm5.005 2.444a1 1 0 0 0 .766-1.847l-.766 1.847Zm5.016 2.403a1 1 0 0 0-1.847.766l1.847-.766Zm-1.847 5.247a1 1 0 1 0 1.847.766l-1.847-.766Zm-2.403 5.017a1 1 0 0 0-.766-1.848l.766 1.848Zm-6.86-1.404a1 1 0 1 0 0 2v-2Zm-7.709 2a1 1 0 0 0 0-2v2Zm-6.877-1.4a1 1 0 1 0 .766 1.847l-.766-1.848Zm-2.427 5.04a1 1 0 0 0-1.847-.766l1.847.766Zm-1.847 5.28a1 1 0 0 0 1.847-.766l-1.847.766Zm5.04 2.426a1 1 0 0 0-.766 1.848l.766-1.848Zm5.322 2.447a1 1 0 1 0 0-2v2Zm6.13-2a1 1 0 1 0 0 2v-2Zm-4.835-25.5h2.764v-2h-2.764v2Zm8.292 0h2.764v-2H34.55v2Zm2.764 0c.796 0 1.552.159 2.24.444l.767-1.847a7.832 7.832 0 0 0-3.007-.597v2Zm5.41 3.613c.285.69.444 1.445.444 2.24h2c0-1.062-.212-2.078-.597-3.006l-1.847.766Zm.444 2.24c0 .796-.159 1.552-.444 2.24l1.847.767a7.833 7.833 0 0 0 .597-3.006h-2Zm-3.613 5.41a5.832 5.832 0 0 1-2.24.444v2a7.834 7.834 0 0 0 3.006-.596l-.766-1.848Zm-2.24.444h-3.855v2h3.854v-2Zm-11.563 0h-3.854v2h3.854v-2Zm-3.854 0c-1.07 0-2.09.213-3.023.6l.766 1.847a5.876 5.876 0 0 1 2.257-.447v-2ZM14.6 34.247a7.876 7.876 0 0 0-.6 3.023h2c0-.802.16-1.563.447-2.257l-1.847-.766ZM14 37.27c0 1.069.213 2.09.6 3.023l1.847-.766A5.875 5.875 0 0 1 16 37.27h-2Zm4.874 7.297c.932.387 1.954.6 3.023.6v-2c-.802 0-1.563-.16-2.257-.448l-.766 1.848Zm3.023.6h3.065v-2h-3.065v2Zm9.195 0h3.065v-2h-3.065v2Z" fill="#161616"/><path d="M16.43 25a8.571 8.571 0 1 0 0-17.143 8.571 8.571 0 0 0 0 17.143Z" fill="#FFF281" stroke="#161616" stroke-width="2" stroke-miterlimit="10"/><path d="M16.43 19.285a3.571 3.571 0 1 0 0-7.142 3.571 3.571 0 0 0 0 7.142Z" fill="#FFF281" stroke="#161616" stroke-width="2" stroke-miterlimit="10"/><path d="M10.695 22.802a6.431 6.431 0 0 1 11.465 0" stroke="#161616" stroke-width="2" stroke-linecap="round" stroke-linejoin="round"/><path d="M43.93 52.5a8.571 8.571 0 1 0 0-17.143 8.571 8.571 0 0 0 0 17.143Z" fill="#FFF281" stroke="#161616" stroke-width="2" stroke-linecap="round" stroke-linejoin="round"/><path d="m47.857 41.786-5.238 5-2.619-2.5" stroke="#161616" stroke-width="2" stroke-linecap="round" stroke-linejoin="round"/></svg>
